packages/katcn/src/icons/svg/gamepad.svg

<svg width="24" height="25" viewBox="0 0 24 25" fill="none" xmlns="http://www.w3.org/2000/svg">
<path d="M16.1 5.31201H7.9C4.1 5.31201 1 8.41201 1 12.212V12.412C1 16.212 4.1 19.312 7.9 19.312H16.1C19.9 19.312 23 16.212 23 12.412V12.212C23 8.41201 19.9 5.31201 16.1 5.31201ZM21 12.412C21 15.112 18.8 17.312 16.1 17.312H7.9C5.2 17.312 3 15.112 3 12.412V12.212C3 9.51201 5.2 7.31201 7.9 7.31201H16.1C18.8 7.31201 21 9.51201 21 12.212V12.412Z" fill="black"/>
<path d="M9.49995 11.312H8.79995V10.612C8.79995 10.012 8.39995 9.612 7.79995 9.612C7.19995 9.612 6.79995 10.012 6.79995 10.612V11.312H6.19995C5.59995 11.312 5.19995 11.712 5.19995 12.312C5.19995 12.912 5.59995 13.312 6.19995 13.312H6.89995V14.012C6.89995 14.612 7.29995 15.012 7.89995 15.012C8.49995 15.012 8.89995 14.612 8.89995 14.012V13.312H9.59995C10.2 13.312 10.6 12.912 10.6 12.312C10.6 11.712 10.1 11.312 9.49995 11.312Z" fill="black"/>
<path d="M14.9 12.412C15.6179 12.412 16.2 11.83 16.2 11.112C16.2 10.394 15.6179 9.81201 14.9 9.81201C14.182 9.81201 13.6 10.394 13.6 11.112C13.6 11.83 14.182 12.412 14.9 12.412Z" fill="black"/>
<path d="M17.4 14.912C18.1179 14.912 18.7 14.33 18.7 13.612C18.7 12.894 18.1179 12.312 17.4 12.312C16.682 12.312 16.1 12.894 16.1 13.612C16.1 14.33 16.682 14.912 17.4 14.912Z" fill="black"/>
</svg>

<svg xmlns="http://www.w3.org/2000/svg" fill="none" viewBox="0 0 24 25"><path fill="#000" d="M16.1 5.312H7.9c-3.8 0-6.9 3.1-6.9 6.9v.2c0 3.8 3.1 6.9 6.9 6.9h8.2c3.8 0 6.9-3.1 6.9-6.9v-.2c0-3.8-3.1-6.9-6.9-6.9m4.9 7.1c0 2.7-2.2 4.9-4.9 4.9H7.9c-2.7 0-4.9-2.2-4.9-4.9v-.2c0-2.7 2.2-4.9 4.9-4.9h8.2c2.7 0 4.9 2.2 4.9 4.9z"/><path fill="#000" d="M9.5 11.312h-.7v-.7c0-.6-.4-1-1-1s-1 .4-1 1v.7h-.6c-.6 0-1 .4-1 1s.4 1 1 1h.7v.7c0 .6.4 1 1 1s1-.4 1-1v-.7h.7c.6 0 1-.4 1-1s-.5-1-1.1-1m5.4 1.1a1.3 1.3 0 1 0 0-2.6 1.3 1.3 0 0 0 0 2.6m2.5 2.5a1.3 1.3 0 1 0 0-2.6 1.3 1.3 0 0 0 0 2.6"/></svg>
